!!!!SEGMENT: pl-cz--i-155--001-004_anonim--partita-b-allegro-presto.krn
!!!id: 18xx:2497
!!!COM: Anonim
!!!COM-rism: pe30004985
!!!CDT:
!!!CNT:
!!!OTL: Partita B - Allegro presto
!!!PDT:
!!!SMS-siglum: PL-CZ
!!!SMS-shelfmark: I-155
!!!NIFC-rismID: 1001012507
!!!URL-scan: http://repozytorium.nifc.pl/skany/pl-cz-nut--i-155
!!!ONB-nifc: UWAGA: Parthia I (001), części: 1. Adagio, 2. Menuetto, 3. Adagio, 4. Allegro presto. Uwaga: 5 partii
!!!SMS-variant:
!!!SMS-altvar:
**kern	**kern	**kern	**kern	**kern	**dynam
*part5	*part4	*part3	*part2	*part1	*part1
*staff5	*staff4	*staff3	*staff2	*staff1	*
*I"Corno Secondo	*I"Corno Primo:	*I"Fagotto	*I"Clarinetto Secondo	*I"Clainetto Primo	*
*I'cor II	*I'cor I	*I'fag	*I'cl II	*I'cl I	*
*clefG2	*clefG2	*clefF4	*clefG2	*clefG2	*
*ITrd1c2	*ITrd1c2	*	*ITrd1c2	*ITrd1c2	*
*k[b-e-]	*k[b-e-]	*k[b-e-]	*k[b-e-]	*k[b-e-]	*
*>[A,A,B,B,C]	*>[A,A,B,B,C]	*>[A,A,B,B,C]	*>[A,A,B,B,C]	*>[A,A,B,B,C]	*
*M6/8	*M6/8	*M6/8	*M6/8	*M6/8	*
=1	=1	=1	=1	=1	=1
*>A	*>A	*>A	*>A	*>A	*
*all\right	*all\right	*all\right	*all\right	*all\right	*
!LO:TX:a:i:t=Allo Presto	!LO:TX:a:i:t=Allo Presto	!	!LO:TX:a:i:t=Allo Presto	!LO:TX:a:i:t=Allo Presto	!
8b-/L	8b-/L	8B-\L	8b-/L	8b-/L	p
8f/	8f/	8F\	8f/	8f/	.
8d/J	8d/J	8D\J	8d/J	8d/J	.
8B-/L	8B-/L	8BB-\L	8B-/L	8B-/L	.
8d/	8d/	8D\	8d/	8d/	.
8f/J	8f/J	8F\J	8f/J	8f/J	.
=2	=2	=2	=2	=2	=2
4B-/	4b-\	4B-\	4b-\	4b-\	.
8r	8r	8r	8r	8r	.
4f/	4cc\	4F\	4a\	4cc\	.
8r	8r	8r	8r	8r	.
=3	=3	=3	=3	=3	=3
*	*	*tremolo	*	*	*
4.d/	4.b-\	8BB-/L	8.b-\L	8.dd\L	.
.	.	8BB-/	.	.	.
.	.	.	16cc\K	16ee-\K	.
.	.	8BB-/J	8dd\J	8ff\J	.
.	.	.	16qqdd/	8qqff/	.
*	*	*Xtremolo	*	*	*
4.f/	4.cc\	4.F\	8cc\L	8ee-\L	.
.	.	.	8b-\	8dd\	.
.	.	.	8a\J	8cc\J	.
!	!	!LO:LB:g=original	!	!	!
=4	=4	=4	=4	=4	=4
!	!	!	!LO:TX:t=P:problem:mixed beam	!	!
8b-/L	8b-/L	8B-\L	8b-\L	8bb-\L	f
8f/	8f/	8F\	8f/	8ff\	.
8d/J	8d/J	8D\J	8d/J	8dd\J	.
8B-/L	8B-/L	8BB-/L	8B-/L	8b-\L	.
8d/	8d/	8D/	8d/	8dd\	.
8f/J	8f/J	8F/J	8f/J	8ff\J	.
!	!	!	!LO:LB:g=original	!LO:LB:g=original	!
=5	=5	=5	=5	=5	=5
4B-/	4b-\	4B-\	4b-\	4b-\	.
8r	8r	4r	8r	8r	.
4f/	4cc\	.	4a\	4cc\	.
.	.	4F\	.	.	.
8r	8r	.	8r	8r	.
!LO:LB:g=original	!LO:LB:g=original	!	!	!	!
=6	=6	=6	=6	=6	=6
*	*	*tremolo	*	*	*
4.d/	4.b-\	8BB-/L	8.b-\L	8.dd\L	.
.	.	8BB-/	.	.	.
.	.	.	16cc\K	16ee-\K	.
.	.	8BB-/J	8dd\J	8ff\J	.
.	.	.	16qqdd/	8qqff/	.
*	*	*Xtremolo	*	*	*
4.f/	4.cc\	4F\	8cc\L	8ee-\L	.
.	.	.	8b-\	8dd\	.
.	.	8r	8a\J	8cc\J	.
=7	=7	=7	=7	=7	=7
*	*	*tremolo	*	*	*
4.B-/	4.b-\	8BB-/L	8b-\L	8b-\L	.
.	.	8BB-/	16gg\L	16bb-\L	.
.	.	.	16ff#X\	16aa\	.
.	.	8BB-/	16gg\	16bb-\	.
.	.	.	16ff#\JJ	16aa\JJ	.
4.B-/	4.b-\	8BB-/	4gg\	4bb-\	.
.	.	8BB-/	.	.	.
.	.	8BB-/J	8ee-\	8gg\	.
!!linebreak:original
=8	=8	=8	=8	=8	=8
4.B-/	4.b-\	8BB-/L	8dd\L	8ff\L	.
.	.	8BB-/	8ee-\	8gg\	.
.	.	8BB-/	8ee-\J	8gg\J	.
.	.	.	16qqff/	.	.
4.B-/	4.b-\	8BB-/	8ee-\L	8gg\L	.
.	.	8BB-/	8dd\	8ff\	.
.	.	8BB-/J	8cc\J	8ee-\J	.
=9	=9	=9	=9	=9	=9
4.B-/	4.b-\	8BB-/L	8b-\L	8b-\L	.
.	.	8BB-/	16gg\L	16bb-\L	.
.	.	.	16ff#X\	16aa\	.
.	.	8BB-/	16gg\	16bb-\	.
.	.	.	16ff#\JJ	16aa\JJ	.
4.B-/	4.b-\	8BB-/	4gg\	4bb-\	.
.	.	8BB-/	.	.	.
.	.	8BB-/J	8ee-\	8gg\	.
!	!	!	!	!LO:LB:g=original	!
=10	=10	=10	=10	=10	=10
4.B-/	4.b-\	8BB-/L	8dd\L	8ff\L	.
.	.	8BB-/	8ee-\	8gg\	.
.	.	8BB-/	8ee-\J	8gg\J	.
!	!	!	!LO:LB:g=original	!	!
.	.	.	8qqff/	.	.
4.B-/	4.b-\	8BB-/	8ee-\L	8gg\L	.
.	.	8BB-/	8dd\	8ff\	.
.	.	8BB-/J	8cc\J	8ee-\J	.
*	*	*Xtremolo	*	*	*
=11	=11	=11	=11	=11	=11
!	!	!LO:TX:t=P:problem:mixed beam	!	!	!
4B-/	4b-\	8BB-/L	4b-\	8dd\L	.
.	.	16B-\L	.	16b-\L	.
.	.	16c\	.	16cc\	.
8r	8r	16d\	8r	16dd\	.
.	.	16e-\JJ	.	16ee-\JJ	.
8f/L	8f/L	8f\L	8f/L	8ff\L	.
8d/	8d/	8d\	8d/	8dd\	.
8B-/J	8B-/J	8B-\J	8B-/J	8b-\J	.
=12	=12	=12	=12	=12	=12
*	*	*2\right	*	*	*
*	*	*tremolo	*	*	*
8r	8r	8F\L	4.f/	4.cc\	.
8F/L	8f/L	8F\	.	.	.
8F/J	8f/J	8F\	.	.	.
8r	8r	8F\	4.cc\	4.ee-\	.
8F/L	8f/L	8F\	.	.	.
8F/J	8f/J	8F\J	.	.	.
*	*	*tremolo	*	*	*
=13	=13	=13	=13	=13	=13
4F/	4d/	8B-\L	4b-\	8dd\L	.
.	.	16B-\L	.	16b-\L	.
.	.	16c\	.	16cc\	.
8r	8r	16d\	8r	16dd\	.
.	.	16e-\JJ	.	16ee-\JJ	.
!	!	!LO:LB:g=original	!	!	!
8f/L	8f/L	8f\L	8f/L	8ff\L	.
8d/	8d/	8d\	8d/	8dd\	.
8B-/J	8B-/J	8B-\J	8B-/J	8b-\J	.
!LO:LB:g=original	!LO:LB:g=original	!	!	!	!
=14	=14	=14	=14	=14	=14
4F/	4f/	8F\L	4F/	8f\L	.
.	.	16B-\L	.	16b-\L	.
.	.	16c\	.	16cc\	.
8r	8r	16d\	8r	16dd\	.
.	.	16e-\JJ	.	16ee-\JJ	.
8f/L	8f/L	8f\L	8f/L	8ff\L	.
8d/	8d/	8d\	8d/	8dd\	.
8B-/J	8B-/J	8B-\J	8B-/J	8b-\J	.
!	!	!	!	!LO:LB:g=original	!
=15	=15	=15	=15	=15	=15
4F/	4f/	4F\	4F/	4f/	.
8r	8r	8r	8r	8r	.
4r	4r	4r	4r	4r	.
8r	8r	8r	8r	8r	.
=16	=16	=16	=16	=16	=16
!LO:N:vis=0	!LO:N:vis=0	!LO:N:vis=0	!LO:N:vis=0	!	!LO:DY:rj
1.r	1.r	1.r	1.r	(8cc\L	p
.	.	.	.	8a\)	.
.	.	.	.	8dd\J|	.
.	.	.	.	8b-\L	.
.	.	.	.	8eeX\	.
.	.	.	.	8cc\J	.
=17	=17	=17	=17	=17	=17
.	.	.	.	8ff\L	.
.	.	.	.	8dd\	.
.	.	.	.	8gg\J	.
.	.	.	.	8eeX\L	.
.	.	.	.	8aa\	.
.	.	.	.	8ff\J	.
=18	=18	=18	=18	=18	=18
2.r;	2.r;	2.r;	2.r;	4bb-;<\	.
.	.	.	.	8r	.
.	.	.	.	4r	.
.	.	.	.	8r	.
!	!	!	!LO:LB:g=original	!	!
=19	=19	=19	=19	=19	=19
*tremolo	*tremolo	*	*	*	*
8cc\L	8cc\L	8C\L	8gg\L	8bb-\L	p
8cc\	8cc\	8E-\	16gg\L	16bb-\L	.
.	.	.	16ff#X\	16aa\	.
8cc\J	8cc\J	8G\J	16gg\	16bb-\	.
.	.	.	16ff#\JJ	16aa\JJ	.
4cc\	4cc\	8c\L	4gg\	4bb-\	.
.	.	16G\L	.	.	.
.	.	16F\	.	.	.
8r	8r	16E-\	8r	8r	.
.	.	16D\JJ	.	.	.
!	!	!	!	!LO:PB:g=original	!
=20	=20	=20	=20	=20	=20
8cc\L	8cc\L	8C\L	8gg\L	8bb-\L	.
8cc\	8cc\	8E-\	16gg\L	16bb-\L	.
.	.	.	16ff#X\	16aa\	.
8cc\J	8cc\J	8G\J	16gg\	16bb-\	.
.	.	.	16ff#\JJ	16aa\JJ	.
*Xtremolo	*Xtremolo	*	*	*	*
4cc\	4cc\	4c\	4gg\	4bb-\	.
8r	8r	8r	8r	8r	.
!	!	!LO:LB:g=original	!	!	!
=21	=21	=21	=21	=21	=21
4f/	4f/	4F\	8cc\L	8aa\L	.
.	.	.	8cc\	8aa\	.
8r	8r	8r	8cc\J	8aa\J	.
4r	4r	4r	(16b-\LL	16gg\LL	.
.	.	.	16a\	16ff\	.
.	.	.	16g\	16ee-\	.
.	.	.	16a\	16ff\	.
8cc\	8cc\	8c\	16b-\)	16gg\	.
.	.	.	16g\JJ	16ee-\JJ	.
=22	=22	=22	=22	=22	=22
4f/	4f/	4f\	8a\L	8ff\L	.
.	.	.	8cc\	8aa\	.
8r	8r	8r	8cc\J	8aa\J	.
4r	4r	4r	16b-\LL	16gg\LL	.
.	.	.	16a\	16ff\	.
.	.	.	16g\	16ee-\	.
.	.	.	16a\	16ff\	.
8cc\	8cc\	8c\	16b-\	16gg\	.
.	.	.	16g\JJ	16ee-\JJ	.
!LO:LB:g=original	!	!	!	!	!
=23	=23	=23	=23	=23	=23
8f/	8f/	8F\L	4a\	8ff\	.
8r	8r	8A\	.	8r	.
8r	8r	8c\J	8r	8r	.
!	!	!	!LO:LB:g=original	!	!
8f/	8f/	8F\L	4a\	8ff\	.
8r	8r	8A\	.	8r	.
8r	8r	8c\J	8r	8r	.
!	!	!	!	!LO:LB:g=original	!
=24	=24	=24	=24	=24	=24
4f/	4f/	4F\	4a\	4ff\	.
8r	8r	8r	8r	8r	.
4r	4r	4r	4r	4r	.
!LO:TX:t=P:problem:24: liczba taktów w tym odcinku	!LO:TX:t=P:problem:24: liczba taktów w tym odcinku	!LO:TX:t=P:problem:24: liczba taktów w tym odcinku	!LO:TX:t=P:problem:24: liczba taktów w tym odcinku	!LO:TX:t=P:problem:24: liczba taktów w tym odcinku	!
8r	8r	8r	8r	8r	.
=25:|!|:	=25:|!|:	=25:|!|:	=25:|!|:	=25:|!|:	=25:|!|:
*>B	*>B	*>B	*>B	*>B	*
!	!	!LO:N:vis=00	!LO:N:vis=00	!	!
4.d/	4.b-\	0.r	0.r	8ff\L	.
.	.	.	.	8ff\	.
.	.	.	.	8ff\J	.
4.f/	4.cc\	.	.	16ee-\LL	.
.	.	.	.	16dd\	.
.	.	.	.	16cc\	.
.	.	.	.	16dd\	.
.	.	.	.	16ee-\	.
.	.	.	.	16cc\JJ	.
=26	=26	=26	=26	=26	=26
4.d/	4.b-\	.	.	8dd\L	.
.	.	.	.	8dd\	.
.	.	.	.	8dd\J	.
4.f/	4.cc\	.	.	16cc\LL	.
.	.	.	.	16b-\	.
.	.	.	.	16a\	.
.	.	.	.	16b-\	.
.	.	.	.	16cc\	.
.	.	.	.	16a\JJ	.
=27	=27	=27	=27	=27	=27
4.d/	4.b-\	.	.	8b-\L	.
.	.	.	.	8dd\	.
.	.	.	.	8ff\J	.
4.f/	4.cc\	.	.	16ee-\LL	.
.	.	.	.	16dd\	.
.	.	.	.	16cc\	.
.	.	.	.	16dd\	.
.	.	.	.	16ee-\	.
.	.	.	.	16cc\JJ	.
!	!	!	!	!LO:LB:g=original	!
=28	=28	=28	=28	=28	=28
4d/	4.b-\	.	.	8dd\L	.
.	.	.	.	8dd\	.
8r	.	.	.	8dd\J	.
4f/	4.cc\	.	.	16cc\LL	.
.	.	.	.	16b-\	.
.	.	.	.	16a\	.
.	.	.	.	16b-\	.
8r	.	.	.	16cc\	.
.	.	.	.	16a\JJ	.
!LO:LB:g=original	!	!	!	!	!
=29	=29	=29	=29	=29	=29
8b-/L	8b-/L	8B-\L	8b-/L	8b-\L	.
8f/	8f/	8F\	8f/	8ff\	.
8d/J	8d/J	8D\J	8d/J	8dd\J	.
!	!	!LO:LB:g=original	!	!	!
8B-/L	8B-/L	8BB-\L	8B-/L	8b-\L	.
8d/	8d/	8D\	8d/	8dd\	.
8f/J	8f/J	8F\J	8f/J	8ff\J	.
!	!LO:LB:g=original	!	!	!	!
=30	=30	=30	=30	=30	=30
4B-/	4b-\	4B-\	4b-\	4b-\	.
8r	8r	8r	8r	8r	.
4f/	4cc\	4F\	4a\	4cc\	.
8r	8r	8r	8r	8r	.
=31	=31	=31	=31	=31	=31
4.d/	4.dd\	4.BB-/	8.b-\L	8.dd\L	.
.	.	.	16cc\K	16ee-\K	.
.	.	.	8dd\J	8ff\J	.
.	.	.	8qqdd/	16qqff/	.
4.f/	4.cc\	4.F\	8cc\L	8ee-\L	.
.	.	.	8b-\	8dd\	.
.	.	.	8a\J	8cc\J	.
=32	=32	=32	=32	=32	=32
8b-/L	8b-/L	8B-\L	8b-/L	8b-\L	.
8f/	8f/	8F\	8f/	8ff\	.
8d/J	8d/J	8D\J	8d/J	8dd\J	.
8B-/L	8B-/L	8BB-\L	8B-/L	8b-\L	.
8d/	8d/	8D\	8d/	8dd\	.
8f/J	8f/J	8F\J	8f/J	8ff\J	.
!	!	!	!LO:LB:g=original	!LO:LB:g=original	!
=33	=33	=33	=33	=33	=33
4d/	4b-\	4B-\	4b-\	4b-\	.
8r	8r	8r	8r	8r	.
4f/	4cc\	4F\	4a\	4cc\	.
8r	8r	8r	8r	8r	.
=34	=34	=34	=34	=34	=34
4.d/	4.b-\	4.BB-/	8.b-\L	8.dd\L	.
.	.	.	16cc\K	16ee-\K	.
.	.	.	8dd\J	8ff\J	.
.	.	.	8qqdd/	16qqff/	.
4f/	4.cc\	4.F\	8cc\L	8ee-\L	.
.	.	.	8b-\	8dd\	.
8r	.	.	8a\J	8cc\J	.
=35	=35	=35	=35	=35	=35
4.B-/	4.b-\	8BB-/L	8b-\L	8b-\L	.
.	.	8BB-/	16gg\L	16bb-\L	.
.	.	.	16ff#X\	16aa\	.
.	.	8BB-/	16gg\	16bb-\	.
.	.	.	16ff#\JJ	16aa\JJ	.
4.B-/	4.b-\	8BB-/	4gg\	4bb-\	.
.	.	8BB-/	.	.	.
.	.	8BB-/J	8ee-\	8gg\	.
!LO:LB:g=original	!	!	!	!	!
=36	=36	=36	=36	=36	=36
4.B-/	4.b-\	8BB-/L	8dd\L	8ff\L	.
.	.	8BB-/	8ee-\	8gg\	.
.	.	8BB-/	8ee-\J	8gg\J	.
.	.	.	8qqff/	.	.
4.B-/	4.b-\	8BB-/	8ee-\L	8gg\L	.
.	.	8BB-/	8dd\	8ff\	.
.	.	8BB-/J	8cc\J	8ee-\J	.
!	!	!LO:LB:g=original	!	!	!
=37	=37	=37	=37	=37	=37
4.B-/	4.b-\	8BB-/L	8b-\L	8b-\L	.
.	.	8BB-/	16gg\L	16bb-\L	.
.	.	.	16ff#X\	16aa\	.
.	.	8BB-/	16gg\	16bb-\	.
.	.	.	16ff#\JJ	16aa\JJ	.
4.B-/	4.b-\	8BB-/	4gg\	4bb-\	.
.	.	8BB-/	.	.	.
.	.	8BB-/J	8ee-\	8gg\	.
!	!	!	!LO:LB:g=original	!LO:LB:g=original	!
=38	=38	=38	=38	=38	=38
4.B-/	4.b-\	8BB-/L	8dd\L	8ff\L	.
.	.	8BB-/	8ee-\	8gg\	.
.	.	8BB-/	8ee-\J	8gg\J	.
.	.	.	8qqff/	.	.
4.B-/	4.b-\	8BB-/	8ee-\L	8gg\L	.
.	.	8BB-/	8dd\	8ff\	.
.	.	8BB-/J	8cc\J	8ee-\J	.
=39	=39	=39	=39	=39	=39
!	!	!LO:TX:t=P:problem:mixed beam	!	!	!
4B-/	4b-\	8BB-/L	4b-\	8dd\L	.
.	.	16B-\L	.	16b-\L	.
.	.	16c\	.	16cc\	.
8r	8r	16d\	8r	16dd\	.
.	.	16e-\JJ	.	16ee-\JJ	.
8f/L	8f/L	8f\L	8f/L	8ff\L	.
8d/	8d/	8d\	8d/	8dd\	.
8B-/J	8B-/J	8B-\J	8B-/J	8b-\J	.
=40	=40	=40	=40	=40	=40
8r	8r	8F\L	4.f/	4f/	.
8F/L	8f/L	8F\	.	.	.
8F/J	8f/J	8F\	.	8r	.
8r	8r	8F\	4.cc\	4ee-\	.
8F/L	8f/L	8F\	.	.	.
8F/J	8f/J	8F\J	.	8r	.
=41	=41	=41	=41	=41	=41
4B-/	4b-\	8B-\L	4b-\	8dd\L	.
.	.	16B-\L	.	16b-\L	.
.	.	16c\	.	16cc\	.
8r	8r	16d\	8r	16dd\	.
.	.	16e-\JJ	.	16ee-\JJ	.
8f/L	8f/L	8f\L	8f/L	8ff\L	.
8d/	8d/	8d\	8d/	8dd\	.
8B-/J	8B-/J	8B-\J	8B-/J	8b-\J	.
=42	=42	=42	=42	=42	=42
4F/	4F/	8F\L	4F/	8f/L	.
.	.	16B-\L	.	16b-/L	.
.	.	16c\	.	16cc/	.
8r	8r	16d\	8r	16dd/	.
.	.	16e-\JJ	.	16ee-/JJ	.
8f/L	8f/L	8f\L	8f/L	8ff\L	.
8d/	8d/	8d\	8d/	8dd\	.
8B-/J	8B-/J	8B-\J	8B-/J	8b-\J	.
!LO:LB:g=original	!	!LO:LB:g=original	!	!LO:LB:g=original	!
=43	=43	=43	=43	=43	=43
4F/	4f/	4F\	4F/	4f/	.
8r	8r	8r	8r	8r	.
4r	4r	4r	4r	4r	.
8r	8r	8r	8r	8r	.
=44	=44	=44	=44	=44	=44
!LO:N:vis=0	!LO:N:vis=0	!LO:N:vis=0	!LO:N:vis=0	!	!
1.r	1.r	1.r	1.r	8f/L	.
.	.	.	.	8d/	.
.	.	.	.	8g/J	.
.	.	.	.	8e-/L	.
.	.	.	.	8a/	.
.	.	.	.	8f/J	.
=45	=45	=45	=45	=45	=45
.	.	.	.	8b-\L	.
.	.	.	.	8g\	.
.	.	.	.	8cc\J	.
.	.	.	.	8a\L	.
.	.	.	.	8dd\	.
.	.	.	.	8b-\J	.
=46	=46	=46	=46	=46	=46
2.r;	2.r;	2.r;	2.r;	4ee-;\	.
.	.	.	.	8r	.
.	.	.	.	4r	.
.	.	.	.	8r	.
!	!LO:LB:g=original	!	!LO:LB:g=original	!	!
=47	=47	=47	=47	=47	=47
*tremolo	*tremolo	*	*	*	*
8F/L	8f/L	8F\L	8cc\L	8ee-\L	.
8F/	8f/	8A\	16cc\L	16ee-\L	.
.	.	.	16b-\	16dd\	.
8F/J	8f/J	8c\J	16a\	16cc\	.
.	.	.	16b-\JJ	16dd\JJ	.
4F/	4f/	8f\L	4cc\	4ee-\	.
.	.	16c\L	.	.	.
.	.	16B-\	.	.	.
8r	8r	16A\	8r	8r	.
.	.	16G\JJ	.	.	.
!	!	!	!	!LO:LB:g=original	!
=48	=48	=48	=48	=48	=48
8F/L	8f/L	8F\L	8cc\L	8ee-\L	.
8F/	8f/	8A\	(16cc\L	16ee-\L	.
.	.	.	16b-\	16dd\	.
8F/J	8f/J	8c\J	16a\	16cc\	.
.	.	.	16b-\JJ)	16dd\JJ	.
*Xtremolo	*Xtremolo	*	*	*	*
4F/	4f/	4f\	4cc\	4ee-\	.
8r	8r	8r	8r	8r	.
=49	=49	=49	=49	=49	=49
*	*	*	*tremolo	*tremolo	*
8d/	4b-\	4B-\	8f/L	8dd\L	.
8ryy	.	.	8f/	8dd\	.
8r	8r	4r	8f/J	8dd\J	.
*	*	*	*Xtremolo	*Xtremolo	*
4r	4r	.	16e-/LL	16cc\LL	.
.	.	.	16d/	16b-\	.
.	.	8r	16c/	16a\	.
.	.	.	16d/	16b-\	.
8f/	8cc\	8F\	16e-/	16cc\	.
.	.	.	16c/JJ	16a\JJ	.
=50	=50	=50	=50	=50	=50
*	*	*	*	*tremolo	*
8d/	4b-\	4B-\	8d/L	8dd\L	.
8ryy	.	.	8f/	8dd\	.
8r	8r	8r	8f/J	8dd\J	.
*	*	*	*	*Xtremolo	*
4r	4r	4r	16e-/LL	16cc\LL	.
.	.	.	16d/	16b-\	.
.	.	.	16c/	16a\	.
.	.	.	16d/	16b-\	.
!	!	!LO:LB:g=original	!	!	!
8f/	8cc\	8F\	16e-/	16cc\	.
.	.	.	16c/JJ	16a\JJ	.
=51	=51	=51	=51	=51	=51
8d/	8b-\	8BB-\L	8d/	8b-\	.
8r	8r	8D\	8r	8r	.
8r	8r	8F\J	8r	8r	.
8d/	8b-\	8BB-\L	8d/	8b-\	.
8r	8r	8D\	8r	8r	.
8r	8r	8F\J	8r	8r	.
!LO:LB:g=original	!	!	!	!	!
=52	=52	=52	=52	=52	=52
4d/	4b-\	4BB-/	4d/	4b-\	.
8r	8r	8r	8r	8r	.
4r	4r	4r	4r	4r	.
!LO:TX:t=P:problem:28: liczba taktów w tym odcinku	!LO:TX:t=P:problem:28: liczba taktów w tym odcinku	!LO:TX:t=P:problem:28: liczba taktów w tym odcinku	!LO:TX:t=P:problem:28: liczba taktów w tym odcinku	!LO:TX:t=P:problem:28: liczba taktów w tym odcinku	!
8r	8r	8r	8r	8ryy	.
!	!LO:LB:g=original	!	!LO:LB:g=original	!LO:LB:g=original	!
=53:|!	=53:|!	=53:|!	=53:|!	=53:|!	=53:|!
*>C	*>C	*>C	*>C	*	*
!	!LO:TX:b:i:t=Coda	!	!LO:TX:a:t=5	!LO:TX:b:i:t=Coda	!
!	!	!LO:TX:b:i:t=Coda	!LO:N:vis=0	!	!
!	!	!LO:N:vis=0	!LO:TX:b:i:t=Coda	!	!
4.d/	4.b-\	0.r	0.r	8ff\L	.
.	.	.	.	8ff\	.
.	.	.	.	8ff\J	.
4.f/	4.cc\	.	.	16ee-\LL	.
.	.	.	.	16dd\	.
.	.	.	.	16cc\	.
.	.	.	.	16dd\	.
.	.	.	.	16ee-\	.
.	.	.	.	16cc\JJ	.
=54	=54	=54	=54	=54	=54
4.d/	4.b-\	.	.	8dd\L	.
.	.	.	.	8dd\	.
.	.	.	.	8dd\J	.
4.f/	4.cc\	.	.	16cc\LL	.
.	.	.	.	16b-\	.
.	.	.	.	16a\	.
.	.	.	.	16b-\	.
.	.	.	.	16cc\	.
.	.	.	.	16a\JJ	.
=55	=55	=55	=55	=55	=55
4.d/	4.b-\	.	.	8b-\L	.
.	.	.	.	8dd\	.
.	.	.	.	8ff\J	.
4f/	4.cc\	.	.	16ee-\LL	.
.	.	.	.	16dd\	.
.	.	.	.	16cc\	.
.	.	.	.	16dd\	.
8ryy	.	.	.	16ee-\	.
.	.	.	.	16cc\JJ	.
!	!	!	!	!LO:LB:g=original	!
=56	=56	=56	=56	=56	=56
4.d/	4.b-\	.	.	8dd\L	.
.	.	.	.	8dd\	.
.	.	.	.	8dd\J	.
4.f/	4.cc\	.	.	16cc\LL	.
.	.	.	.	16b-\	.
.	.	.	.	16a\	.
.	.	.	.	16b-\	.
.	.	.	.	16cc\	.
.	.	.	.	16a\JJ	.
=57	=57	=57	=57	=57	=57
!	!	!LO:N:vis=0	!LO:TX:a:t=Finis.	!	!
4B-/	4b-\	2.r	2.r	8b-\L	.
.	.	.	.	8dd\	.
8r	8r	.	.	8ff\J	.
4B-/	4b-\	.	.	8b-\L	.
.	.	.	.	8dd\	.
8r	8r	.	.	8ff\J	.
=58	=58	=58	=58	=58	=58
!	!	!LO:TX:t=P:problem:brak 2 taktów	!LO:TX:t=P:problem:brak 2 taktów	!	!
8B-/L	8b-/L	2.ryy	2.ryy	4b-\	.
8d/	8f/	.	.	.	.
8f/J	8d/J	.	.	8r	.
!	!LO:LB:g=original	!	!	!	!
8B-/L	8B-/L	.	.	4b-\	.
8f/	8d/	.	.	.	.
8d/J	8f/J	.	.	8r	.
!LO:LB:g=original	!	!	!	!	!
=59	=59	=59	=59	=59	=59
4B-/	4b-\	2.ryy	2.ryy	4b-\	.
8r	8r	.	.	8r	.
4r	4r	.	.	4r	.
!LO:TX:t=P:problem:7: liczba taktów w tym odcinku	!LO:TX:t=P:problem:7: liczba taktów w tym odcinku	!	!	!	!
8r	8r	.	.	8r	.
==	==	==	==	==	==
*-	*-	*-	*-	*-	*-
!!!system-decoration: [(s1,s2,s3)][(s4,s5)]
!!!ENC: Mateusz Solarz
!!!END: 2021-06-18
!!!RDF**kern: | = vertical stroke
!!!RDF**dynam: f = fo
!!!RDF**kern: > = above
!!!RDF**kern: < = below
!!!EED: Andrzej Borzym
!!!EST: 2021-06-19
